X:86
T:THE OLDHAM ROWLING HORNPIPE
B:John of the Greeny Cheshire Way
N:© John Offord, Reproduced with permission
M:3/2
L:1/8
K:D
DEFG AFDF EDEF | D2 EF GFED C2 C2 |\
DEFG AFDF EDEF | D2 d2 AFGE D4 ||
DEFG AB c2 BcdB | c2 BA GFED C2 C2 |\
DEFG ABcA agfe | d2 d2 AFGE D4 ||
DEFG efge fgaf | d2 d2 efge c2 c2 |\
efge afdf gece | d2 d2 AFGE D4 |]


BIBLIOGRAPHY

CANNON, R.D. English Bagpipe Music, "Folk Music Journal" 1972.
CANNON, R.D. The Bagpipe in Northern England, "Folk Music Journal" 1971.
JONES, Edward, "Popular Cheshire Melodies" 1798.
KERSHAW, Joseph, of Slack Nr. Oldham, Lancs, MSS Music Book c. 1820.
MARSDEN, Thomas. "Original Lancashire Hornpipes" c. 1705.
PLAYFORD, John. "The Dancing Master", various editions.
WALSH, J. "The Thrid Bood of the most celebrated jiggs, Lancashire
Hornpipes etc. c. 1730.
WILSON, "A Companion to the Ballroom" 1816.
WRIGHT, Daniel. "An extraordinary collection of pleasant and merry humours
etc. c. 1715.
WRIGHT, Daniel. " Complete Collection of celebrated country dances c. 1730.

Alice Flynn's Homepage . Traditional Music page


%%footer $P
%%infoline 1
